src/components/00-materials/images-raw/Target.svg

<svg width="96" height="96" viewBox="0 0 96 96" fill="none" xmlns="http://www.w3.org/2000/svg">
<path d="M40.0455 56.7075C42.6026 56.6914 44.6565 53.6564 44.633 49.9285C44.6096 46.2007 42.5177 43.1917 39.9607 43.2077C37.4037 43.2238 35.3498 46.2588 35.3732 49.9867C35.3966 53.7145 37.4885 56.7235 40.0455 56.7075Z" stroke="#00008F" stroke-width="2" stroke-miterlimit="10"/>
<path d="M39.69 66.8698C45.9971 66.8698 51.11 59.4109 51.11 50.2098C51.11 41.0087 45.9971 33.5498 39.69 33.5498C33.3829 33.5498 28.27 41.0087 28.27 50.2098C28.27 59.4109 33.3829 66.8698 39.69 66.8698Z" stroke="#00008F" stroke-width="2" stroke-miterlimit="10"/>
<path d="M40.17 76.5172C50.2269 76.454 58.3049 64.5117 58.2127 49.8433C58.1206 35.1749 49.8931 23.3351 39.8362 23.3983C29.7793 23.4615 21.7013 35.4038 21.7935 50.0722C21.8856 64.7406 30.1131 76.5804 40.17 76.5172Z" stroke="#00008F" stroke-width="2" stroke-miterlimit="10"/>
<path d="M40.2322 86.4168C54.0391 86.33 65.1292 69.9363 65.0026 49.8004C64.8761 29.6645 53.5809 13.4114 39.774 13.4982C25.9672 13.5849 14.8771 29.9786 15.0036 50.1146C15.1301 70.2505 26.4254 86.5035 40.2322 86.4168Z" stroke="#00008F" stroke-width="2" stroke-miterlimit="10"/>
<path d="M40.63 86.42L30.25 86.5C16.44 86.6 5.13997 70.36 4.99997 50.23C4.85997 30.1 15.94 13.68 29.75 13.58L40.13 13.5" stroke="#00008F" stroke-width="2" stroke-miterlimit="10"/>
<path d="M90.9999 22.7397L39.8199 50.0497" stroke="#00008F" stroke-width="2" stroke-miterlimit="10" stroke-linecap="round"/>
<path d="M80.6 35.1001C77.95 36.5201 75.24 35.7001 73.36 32.1701C71.48 28.6401 72.3 25.9301 74.94 24.5201L83.76 19.8101L89.42 30.3901L80.6 35.1001Z" stroke="#00008F" stroke-width="2" stroke-miterlimit="10"/>
</svg>

<svg width="96" height="96" viewBox="0 0 96 96" fill="none" xmlns="http://www.w3.org/2000/svg"><path d="M40.045 56.708c2.558-.017 4.611-3.052 4.588-6.78-.023-3.727-2.115-6.736-4.672-6.72-2.557.016-4.611 3.05-4.588 6.779.024 3.727 2.116 6.736 4.672 6.72z" stroke="#00008F" stroke-width="2" stroke-miterlimit="10"/><path d="M39.69 66.87c6.307 0 11.42-7.46 11.42-16.66 0-9.201-5.113-16.66-11.42-16.66-6.307 0-11.42 7.459-11.42 16.66 0 9.2 5.113 16.66 11.42 16.66z" stroke="#00008F" stroke-width="2" stroke-miterlimit="10"/><path d="M40.17 76.517c10.057-.063 18.135-12.005 18.043-26.674-.092-14.668-8.32-26.508-18.377-26.445-10.057.064-18.135 12.006-18.042 26.674.092 14.669 8.32 26.508 18.376 26.445z" stroke="#00008F" stroke-width="2" stroke-miterlimit="10"/><path d="M40.232 86.417C54.04 86.33 65.13 69.937 65.002 49.8c-.126-20.135-11.421-36.389-25.228-36.302-13.807.087-24.897 16.48-24.77 36.617.126 20.136 11.421 36.389 25.228 36.302z" stroke="#00008F" stroke-width="2" stroke-miterlimit="10"/><path d="M40.63 86.42l-10.38.08C16.44 86.6 5.14 70.36 5 50.23 4.86 30.1 15.94 13.68 29.75 13.58l10.38-.08" stroke="#00008F" stroke-width="2" stroke-miterlimit="10"/><path d="M91 22.74L39.82 50.05" stroke="#00008F" stroke-width="2" stroke-miterlimit="10" stroke-linecap="round"/><path d="M80.6 35.1c-2.65 1.42-5.36.6-7.24-2.93-1.88-3.53-1.06-6.24 1.58-7.65l8.82-4.71 5.66 10.58-8.82 4.71z" stroke="#00008F" stroke-width="2" stroke-miterlimit="10"/></svg>
